packages/ui-icons/osui-icons/raw/home.svg

<svg xmlns="http://www.w3.org/2000/svg"  viewBox="0 0 1024 1024">
  <path fill="#333" fill-rule="evenodd" d="M789.345387,895.940879 C797.199546,895.940879 803.566599,889.573826 803.566599,881.719668 L803.566599,650.624979 C803.566599,632.953123 817.892469,618.627253 835.564325,618.627253 C853.236181,618.627253 867.562051,632.953123 867.562051,650.624979 L867.562051,881.719668 C867.562051,924.917538 832.543258,959.936331 789.345387,959.936331 L627.579105,959.936331 C609.907249,959.936331 595.581379,945.610462 595.581379,927.938605 L595.581379,682.622705 L428.482143,682.622705 L428.482143,927.938605 C428.482143,945.610462 414.156273,959.936331 396.484417,959.936331 L234.718135,959.936331 C191.520264,959.936331 156.501471,924.917538 156.501471,881.719668 L156.501471,567.075361 L96.0613215,567.075361 C67.9693924,567.075361 53.5124124,533.464781 72.8324863,513.07137 L488.802926,73.9914612 C501.423719,60.6695129 522.639803,60.6695129 535.260596,73.9914612 L951.231036,513.07137 C963.38476,525.900301 962.837397,546.152745 950.008466,558.30647 C937.179534,570.460194 916.92709,569.912831 904.773366,557.083899 L512.031761,142.523317 L170.451832,503.079908 L188.499197,503.079908 C206.171053,503.079908 220.496923,517.405778 220.496923,535.077635 L220.496923,881.719668 C220.496923,889.573826 226.863976,895.940879 234.718135,895.940879 L364.486691,895.940879 L364.486691,673.734448 C364.486691,643.299584 389.159022,618.627253 419.593886,618.627253 L604.469637,618.627253 C634.9045,618.627253 659.576832,643.299584 659.576832,673.734448 L659.576832,895.940879 L789.345387,895.940879 Z"/>
</svg>

<?xml version="1.0" standalone="no"?><!DOCTYPE svg PUBLIC "-//W3C//DTD SVG 1.1//EN" "http://www.w3.org/Graphics/SVG/1.1/DTD/svg11.dtd"><svg t="1598446311181" class="icon" viewBox="0 0 1024 1024" version="1.1" xmlns="http://www.w3.org/2000/svg" p-id="13760" width="16" height="16" xmlns:xlink="http://www.w3.org/1999/xlink"><defs><style type="text/css"></style></defs><path d="M789.376 896c7.808 0 14.208-6.4 14.208-14.272v-231.104a32 32 0 1 1 64 0v231.04c0 43.264-35.072 78.272-78.208 78.272H627.584a32 32 0 0 1-32-32v-245.312H428.48v245.312a32 32 0 0 1-32 32H234.688a78.208 78.208 0 0 1-78.208-78.208V567.04h-60.416a32 32 0 0 1-23.232-54.016l416-439.04a32 32 0 0 1 46.4 0l416 439.04a32 32 0 1 1-46.464 43.968L512 142.528 170.432 503.04h18.048a32 32 0 0 1 32 32v346.624c0 7.872 6.4 14.208 14.208 14.208h129.792v-222.208c0-30.4 24.704-55.04 55.104-55.04h184.896c30.4 0 55.04 24.64 55.04 55.04V896h129.856z" p-id="13761"></path></svg>
